svgs/feit_electric.svg

<svg width="192" height="192" viewBox="0 0 192 192" fill="none" xmlns="http://www.w3.org/2000/svg">
<path d="M22 94.9719L96.2079 27L145.472 72.4185L170 94.9719" stroke="black" stroke-width="12" stroke-linecap="round" stroke-linejoin="round"/>
<path d="M42.1628 78.8624V165.334H149.837V78.8624" stroke="black" stroke-width="12" stroke-linecap="round" stroke-linejoin="round"/>
<path d="M114.708 86.2416C114.708 94.0365 105.354 104.949 105.354 104.949C105.354 104.949 106.913 115.758 95.9999 115.758C85.0869 115.758 86.6459 104.949 86.6459 104.949C86.6459 104.949 77.292 94.0365 77.292 86.2416C77.292 78.4466 77.292 66.7022 95.9999 66.7022C114.708 66.7022 114.708 78.3427 114.708 86.2416Z" stroke="black" stroke-width="12" stroke-linecap="round" stroke-linejoin="round"/>
<path d="M104.522 127.191H87.4775" stroke="black" stroke-width="12" stroke-linecap="round" stroke-linejoin="round"/>
<path d="M87.4775 136.441L92.0506 141.742H100.157L104.522 136.441" stroke="black" stroke-width="12" stroke-linecap="round" stroke-linejoin="round"/>
</svg>

<svg xmlns="http://www.w3.org/2000/svg" width="192" height="192" fill="none" viewBox="0 0 192 192"><path stroke="#000" stroke-linecap="round" stroke-linejoin="round" stroke-width="12" d="M22 94.972 96.208 27l49.264 45.418L170 94.972"/><path stroke="#000" stroke-linecap="round" stroke-linejoin="round" stroke-width="12" d="M42.163 78.862v86.472h107.674V78.862"/><path stroke="#000" stroke-linecap="round" stroke-linejoin="round" stroke-width="12" d="M114.708 86.242c0 7.794-9.354 18.707-9.354 18.707s1.559 10.809-9.354 10.809c-10.913 0-9.354-10.809-9.354-10.809s-9.354-10.912-9.354-18.707 0-19.54 18.708-19.54 18.708 11.64 18.708 19.54ZM104.522 127.191H87.478M87.478 136.441l4.573 5.301h8.106l4.365-5.301"/></svg>
